img/icon-reload.svg

<svg fill="none" height="24" viewBox="0 0 24 24" width="24" xmlns="http://www.w3.org/2000/svg"><g fill="#fff"><path d="m12.0405 16.2902c-.3907-.3907-1.0235-.3907-1.414 0-.3906.3906-.3907 1.0234 0 1.414l1.6101 1.61c-.0795.0026-.1563.0162-.2364.0162-4.04361 0-7.33334-3.2897-7.33334-7.3333 0-2.01041.79361-3.88344 2.23441-5.27411.3972-.38346.40827-1.01632.0248-1.41405-.3828-.39653-1.01626-.40821-1.414-.02475-1.83466 1.7708-2.84508 4.1549-2.84508 6.71291 0 5.0137 3.97627 9.1048 8.93921 9.3132l-.9796.9799c-.3907.3906-.3907 1.0234 0 1.414.1953.1953.4512.2929.7071.2929.2558 0 .5117-.0976.707-.2929l3-3c.3906-.3907.3906-1.0235 0-1.414z"/><path d="m12.3941 2.68683.9796-.97998c.3906-.39067.3906-1.023366 0-1.4139-.3906-.3905335-1.0234-.3906668-1.414 0l-2.99995 3c-.39067.39066-.39067 1.02337 0 1.4139l2.99995 3c.1954.19534.4512.29296.7071.29296s.5117-.09762.7071-.29296c.3907-.39066.3907-1.02337 0-1.4139l-1.6104-1.61068c.0792-.00267.1572-.01562.2368-.01562 4.0435 0 7.3332 3.28974 7.3332 7.33335 0 2-.7949 3.8731-2.2376 5.2741-.3965.3848-.4056 1.0176-.0208 1.414.196.2019.4564.3034.7175.3034.2513 0 .5027-.0938.6967-.2826 1.834-1.7805 2.8444-4.1634 2.8444-6.7089 0-5.01375-3.9767-9.10477-8.9396-9.31317z"/></g></svg>

<svg width="24" height="24" viewBox="0 0 24 24" fill="none" xmlns="http://www.w3.org/2000/svg">
<path d="M12.0405 16.2902C11.6498 15.8995 11.017 15.8995 10.6265 16.2902C10.2359 16.6808 10.2358 17.3136 10.6265 17.7042L12.2366 19.3142C12.1571 19.3168 12.0803 19.3304 12.0002 19.3304C7.95659 19.3304 4.66686 16.0407 4.66686 11.9971C4.66686 9.98669 5.46047 8.11366 6.90127 6.72299C7.29847 6.33953 7.30954 5.70667 6.92607 5.30894C6.54327 4.91241 5.90981 4.90073 5.51207 5.28419C3.67741 7.05499 2.66699 9.43909 2.66699 11.9971C2.66699 17.0108 6.64326 21.1019 11.6062 21.3103L10.6266 22.2902C10.2359 22.6808 10.2359 23.3136 10.6266 23.7042C10.8219 23.8995 11.0778 23.9971 11.3337 23.9971C11.5895 23.9971 11.8454 23.8995 12.0407 23.7042L15.0407 20.7042C15.4313 20.3135 15.4313 19.6807 15.0407 19.2902L12.0405 16.2902Z" fill="white"/>
<path d="M12.3941 2.68683L13.3737 1.70685C13.7643 1.31618 13.7643 0.683484 13.3737 0.29295C12.9831 -0.0975835 12.3503 -0.0977168 11.9597 0.29295L8.95975 3.29295C8.56908 3.68361 8.56908 4.31632 8.95975 4.70685L11.9597 7.70685C12.1551 7.90219 12.4109 7.99981 12.6668 7.99981C12.9227 7.99981 13.1785 7.90219 13.3739 7.70685C13.7646 7.31619 13.7646 6.68348 13.3739 6.29295L11.7635 4.68227C11.8427 4.6796 11.9207 4.66665 12.0003 4.66665C16.0438 4.66665 19.3335 7.95639 19.3335 12C19.3335 14 18.5386 15.8731 17.0959 17.2741C16.6994 17.6589 16.6903 18.2917 17.0751 18.6881C17.2711 18.89 17.5315 18.9915 17.7926 18.9915C18.0439 18.9915 18.2953 18.8977 18.4893 18.7089C20.3233 16.9284 21.3337 14.5455 21.3337 12C21.3337 6.98625 17.357 2.89523 12.3941 2.68683Z" fill="white"/>
</svg>
